X:120
T:Is Not This Pleasant?
N:"Gaily"
B:O'Neill's 120
Z:Transcribed by henrik.norbeck@mailbox.swipnet.se
M:6/8
L:1/8
K:G
G|Bcd cAd|B2 G G2 B|def geg|f2 d d2 d|
geg fdB|c2 e dBG|Bcd g2 e|f2 d cAF|\
GAB c2d|ABA2 G G2|]
